X:1
T:“CHANTICLEER”
T:“CHANTICLEER”
T:Waltz.
T:By EUGENE MACK.
T:Copyright 1910 by McKinley Music Co.
T:Copyright 1910 by McKinley Music Co.
T:Copyright 1910 by McKinley Music Co.
T:Copyright 1910 by McKinley Music Co.
C:By EUGENE MACK.
Z:Copyright 1910 by McKinley Music Co.
%%score { ( 1 2 ) | ( 3 4 ) }
L:1/8
Q:1/4=120
M:3/4
K:Bb
V:1 treble nm="Piano" snm="Pno."
V:2 treble 
V:3 bass 
V:4 bass 
V:1
"^Tempo di Valse."!p!!<(! F6 | G4 D2 | F6-!<)! | F(G!>(!ABcd | g6) | f4!>)! B2 | A6- | A2 z2 z2 | %8
!<(! F6 | G4 E2 | F6-!<)! |!>(! F(GABce | [fa]6) | [eg]4!>)! [ce]2 | [Bd]2 ([dg]2 [df]2 | %15
 [Bd]2 [DFc]2 [DFB]2 |!<(! F6) | G4 D2 | F6-!<)! |!>(! FGABc^c!>)! | [=Bd]6 |!<(! [=Be]4 [Bd]2 | %22
 g6-!<)! | g2 z2 a2 |!f! [gb]6 | [eg]4 [e_g]2 | (([df]6 | [=Bd]4)) d2 | [=E_Bd]6 | [_EFc]4 [EF]2 | %30
 [DFB]6- | [DFB]2 (!>!G2 !>!A2) |:!ff! B3 [Bd] [df]2- | [df]2 [Bd]2 B2 | [Ae]2 z [Ae] [FA]2- | %35
 [FA]2 z2 z2 | [fa]3 [eg] [eg]2 | [eg]3 [df] [df]2 | [df]3 [ce] [ce]2 | [Bd] z (!>!G2 !>!A2) | %40
 B2 z [Bd] [df]2- | [df]2 [Bd]2 B2 | [Ae]2 z [Ae] [FA]2- | [FA]2 z2 z2 | [fa]2 z [eg] [eg]2 | %45
 [Ae]2 z [Ae] [EFA]2 |1 [DFB]2 z [DFB] [DFB]2 | [DFB]2 !>!G2 !>!A2 :|2 [DFB]2 z [DFB] [DFB]2 | %49
 [DFB]2 z2 z2 ||!p! F6 | G4 D2 | F6- | F(GABcd | [dg]6) | [df]4 B2 | A6- | A2 z2 z2 | F6 | G4 E2 | %60
 F6- | F(GABce | [fa]6) | [eg]4 [ce]2 | [Bd]6- | [Bd]2 z2 z2 | F6 | G4 D2 | F6- | F(GABc^c | %70
 [=Bd]6) | [=Be]4 [Bd]2 | g6- | g2 z2 a2 | [gb]6 | [eg]4 [e_g]2 | [df]6 | [=Bd]4 d2 | [=E_Bd]6 | %79
 [_EFc]4 [EF]2 | [DFB]6- | [DFB]2 z2 z2 |:[K:Eb]!pp! ([EG]6 | [FA]4 [^F=A]2 | [GB]6 | [Bg]6) | %86
 =A6 | [=Ac]4 [Aeg]2 | [=A-ef-]6 | [Af]6 | A4 B2 | [Ad]4 [Ac]2 | A4 B2 | [Ad]4 [Ac]2 | [GB]6 | %95
 [^F=A]4 [Ac]2 | [GB]6- | [GB]2 z2 z2 | ([EG]6 | [FA]4 [^F=A]2 | [GB]6 | [Bg]6) | =A6 | %103
 [=Ac]4 [Aeg]2 | [=Aef]6- | [Aef]6 | ([FA]4 B2 | [Ad]4 [Ac]2 | [FA]4 B2 | [Ad]4 [Ac]2) | %110
 B2- [Bg]4 | [=Aeg]4 [_Adf]2 |1 [GBe]6- | [GBe]2 z2 z2 :|2 [GBe]6- | [GBe]2 z2 z2 ||[K:Bb] F6 | %117
 G4 D2 | F6- | F(GABcd | [dg]6) | [df]4 B2 | A6- | A2 z2 z2 | F6 | G4 E2 | F6- | F(GABce | [fa]6) | %129
 [eg]4 [ce]2 | [Bd]6- | [Bd]2 z2 z2 | F6 | G4 D2 | F6- | F(GABc^c | [=Bd]6) | [=Be]4 [Bd]2 | g6- | %139
 g2 z2 a2 | [gb]6 | [eg]4 [e_g]2 | [df]6 | [=Bd]4 d2 | [=E_Bd]6 | [_EFc]4 [EF]2 | [DFB]6- | %147
 [DFB]2 z2 z2 |] %148
V:2
 z2 [B,D]2 [B,D]2 | z2 [B,D]2 B,2 | z2 [B,D]2 [B,D]2- | [B,D]2 z2 z2 | z2 [Bd]2 [Bd]2 | %5
 z2 [Bd]2 z2 | z2 [EF]2 [EF]2 | z2 [EF]2 [EF]2 | z2 [CE]2 [CE]2 | z2 [CE]2 z2 | z2 [CE]2 [CE]2 | %11
 [CE]2 z2 z2 | x6 | x6 | x6 | x6 | z2 [B,D]2 [B,D]2 | z2 [B,D]2 B,2 | z2 [B,D]2 [B,D]2- | %19
 [B,D] z z2 z2 | x6 | x6 | z2 [ce]2!>(! [=Bd]2 | [ce]2 x4!>)! | x6 | x6 | x6 | x6 | x6 | x6 | x6 | %31
 x6 |: x6 | x6 | x6 | x6 | x6 | x6 | x6 | x6 | x6 | x6 | x6 | x6 | x6 | x6 |1 x6 | x6 :|2 x6 | %49
 x6 || z2 [B,D]2 [B,D]2 | z2 [B,D]2 B,2 | z2 [B,D]2 [B,D]2- | [B,D]2 z2 z2 | x6 | x6 | %56
 z2 [EF]2 [EF]2 | z2 [EF]2 [EF]2 | z2 [CE]2 [CE]2 | z2 [CE]2 z2 | z2 [CE]2 [CE]2 | [CE]2 z2 z2 | %62
 x6 | x6 | x6 | x6 | z2 [B,D]2 [B,D]2 | z2 [B,D]2 B,2 | z2 [B,D]2 [B,D]2- | [B,D] z z2 z2 | x6 | %71
 x6 | z2 [ce]2 [=Bf]2 | [ce]2 x4 | x6 | x6 | x6 | x6 | x6 | x6 | x6 | x6 |:[K:Eb] x6 | x6 | x6 | %85
 x6 | x6 | x6 | x6 | x6 | F6 | x6 | F6 | x6 | x6 | x6 | x6 | x6 | x6 | x6 | x6 | x6 | x6 | x6 | %104
 x6 | x6 | x6 | x6 | x6 | x6 | x6 | x6 |1 x6 | x6 :|2 x6 | x6 ||[K:Bb] z2 [B,D]2 [B,D]2 | %117
 z2 [B,D]2 B,2 | z2 [B,D]2 [B,D]2- | [B,D]2 z2 z2 | x6 | x6 | z2 [EF]2 [EF]2 | z2 [EF]2 [EF]2 | %124
 z2 [CE]2 [CE]2 | z2 [CE]2 z2 | z2 [CE]2 [CE]2 | [CE]2 z2 z2 | x6 | x6 | x6 | x6 | %132
 z2 [B,D]2 [B,D]2 | z2 [B,D]2 B,2 | z2 [B,D]2 [B,D]2- | [B,D] z z2 z2 | x6 | x6 | z2 [ce]2 [=Bf]2 | %139
 [ce]2 x4 | x6 | x6 | x6 | x6 | x6 | x6 | x6 | x6 |] %148
V:3
 B,,2 F,2 F,2 | F,,2 F,2 F,2 | B,,2 F,2 F,2 | F,,2 z2 z2 | B,,2 [D,F,B,]2 [D,F,B,]2 | %5
 F,,2 [D,F,B,]2 [D,F,B,]2 | C,2 [F,A,]2 [F,A,]2 | F,,2 [F,A,]2 [F,A,]2 | C,2 [F,A,]2 [F,A,]2 | %9
 F,,2 [F,A,]2 [F,A,]2 | C,2 [F,A,]2 [F,A,]2 | F,,2 [F,A,]2 [F,A,]2 | C,2 [E,F,A,]2 [E,F,A,]2 | %13
 F,,2 [E,F,A,]2 [E,F,A,]2 | [B,,B,]2 z2 z2 | z6 | B,,2 F,2 F,2 | F,,2 F,2 F,2 | B,,2 F,2 F,2 | %19
 F,,2 z2 z2 | G,,2 [F,G,]2 [F,G,]2 | G,,2 [F,G,]2 [F,G,]2 | z2 G,4- | G,2 z2 z2 | %24
 E,2 [G,C]2 [G,C]2 | C,2 [E,G,C]2 [E,_G,C]2 | [F,B,D]2 [A,,A,]2 [_A,,_A,]2 | %27
 [G,,G,]2 [F,G,=B,]2 [F,G,B,]2 | C,2 [=E,B,C]2 [E,B,C]2 | F,,2 [F,A,C]2 [F,A,C]2 | %30
 [B,,B,]2 (F,2 D,2 | B,,2) z2 z2 |: B,,2 [D,F,B,]2 [D,F,B,]2 | F,,2 [D,F,B,]2 [D,F,B,]2 | %34
 C,2 [E,F,A,]2 [E,F,A,]2 | F,,2 [E,F,A,]2 [E,F,A,]2 | C,2 [E,F,A,]2 [E,F,A,]2 | %37
 B,,2 [D,F,B,]2 [D,F,B,]2 | F,,2 [E,F,A,]2 [E,F,A,]2 | [B,,B,]2 z2 z2 | B,,2 [D,F,B,]2 [D,F,B,]2 | %41
 F,,2 [D,F,B,]2 [D,F,B,]2 | C,2 [E,F,A,]2 [E,F,A,]2 | F,,2 [E,F,A,]2 [E,F,A,]2 | %44
 C,2 [E,F,A,]2 [E,F,A,]2 | F,,2 [E,F,A,]2 [E,F,A,]2 |1 [B,,B,]2 z [B,,B,] [B,,B,]2 | %47
 [B,,B,]2 z2 z2 :|2 [B,,B,]2 z [B,,B,] [B,,B,]2 | [B,,B,]2 z2 z2 || B,,2 F,2 F,2 | F,,2 F,2 F,2 | %52
 B,,2 F,2 F,2 | F,,2 z2 z2 | B,,2 [D,F,B,]2 [D,F,B,]2 | F,,2 [D,F,B,]2 [D,F,B,]2 | %56
 C,2 [F,A,]2 [F,A,]2 | F,,2 [F,A,]2 [F,A,]2 | C,2 [F,A,]2 [F,A,]2 | F,,2 [F,A,]2 [F,A,]2 | %60
 C,2 [F,A,]2 [F,A,]2 | F,,2 [F,A,]2 [F,A,]2 | C,2 [E,F,A,]2 [E,F,A,]2 | F,,2 [E,F,A,]2 [E,F,A,]2 | %64
 B,,2 [D,F,B,]2 [D,F,B,]2 | F,,2 [D,F,B,]2 [D,F,B,]2 | B,,2 F,2 F,2 | F,,2 F,2 F,2 | B,,2 F,2 F,2 | %69
 F,,2 z2 z2 | G,,2 [F,G,]2 [F,G,]2 | G,,2 [F,G,]2 [F,G,]2 | z2 G,4- | G,2 z2 z2 | %74
 E,2 [G,C]2 [G,C]2 | C,2 [E,G,C]2 [E,_G,C]2 | [F,B,D]2 [A,,A,]2 [_A,,_A,]2 | %77
 [G,,G,]2 [F,G,=B,]2 [F,G,B,]2 | C,2 [=E,B,C]2 [E,B,C]2 | F,,2 [F,A,C]2 [F,A,C]2 | %80
 [B,,B,]2 F,2 D,2 | B,,2 z2 z2 |:[K:Eb] E,2 [G,B,]2 [G,B,]2 | B,,2 [G,B,]2 [G,B,]2 | %84
 E,2 [G,B,]2 [G,B,]2 | B,,2 [G,B,]2 [G,B,]2 | C,2 [E,F,=A,]2 [E,F,A,]2 | %87
 F,,2 [E,F,=A,]2 [E,F,A,]2 | C,2 [E,F,=A,]2 [E,F,A,]2 | F,,2 [E,F,=A,]2 [E,F,A,]2 | %90
 D,2 [F,A,B,]2 [F,A,B,]2 | B,,2 [F,A,B,]2 [F,A,B,]2 | D,2 [F,A,B,]2 [F,A,B,]2 | %93
 B,,2 [F,A,B,]2 [F,A,B,]2 | E,2 [G,B,]2 [G,B,]2 | E,2 [=A,C]2 [A,C]2 | E,2 [G,B,]2 [G,B,]2 | %97
 B,,2 [G,B,]2 [G,B,]2 | E,2 [G,B,]2 [G,B,]2 | B,,2 [G,B,]2 [G,B,]2 | E,2 [G,B,]2 [G,B,]2 | %101
 B,,2 [G,B,]2 [G,B,]2 | C,2 [E,F,=A,]2 [E,F,A,]2 | F,,2 [E,F,=A,]2 [E,F,A,]2 | %104
 C,2 [E,F,=A,]2 [E,F,A,]2 | F,,2 [E,F,=A,]2 [E,F,A,]2 | D,2 [F,A,B,]2 [F,A,B,]2 | %107
 B,,2 [F,A,B,]2 [F,A,B,]2 | D,2 [F,A,B,]2 [F,A,B,]2 | B,,2 [F,A,B,]2 [F,A,B,]2 | E,2 [G,B,]2 B,,2 | %111
 F,,2 [E,F,=A,]2 B,,2 |1 [E,,E,]2 B,,2 G,,2 | E,,2 C,2 E,2 :|2 [E,,E,]2 B,,2 G,,2 | %115
 [E,,E,]2 z2 z2 ||[K:Bb] B,,2 F,2 F,2 | F,,2 F,2 F,2 | B,,2 F,2 F,2 | F,,2 z2 z2 | %120
 B,,2 [D,F,B,]2 [D,F,B,]2 | F,,2 [D,F,B,]2 [D,F,B,]2 | C,2 [F,A,]2 [F,A,]2 | F,,2 [F,A,]2 [F,A,]2 | %124
 C,2 [F,A,]2 [F,A,]2 | F,,2 [F,A,]2 [F,A,]2 | C,2 [F,A,]2 [F,A,]2 | F,,2 [F,A,]2 [F,A,]2 | %128
 C,2 [E,F,A,]2 [E,F,A,]2 | F,,2 [E,F,A,]2 [E,F,A,]2 | B,,2 [D,F,B,]2 [D,F,B,]2 | %131
 F,,2 [D,F,B,]2 [D,F,B,]2 | B,,2 F,2 F,2 | F,,2 F,2 F,2 | B,,2 F,2 F,2 | F,,2 z2 z2 | %136
 G,,2 [F,G,]2 [F,G,]2 | G,,2 [F,G,]2 [F,G,]2 | z2 G,4- | G,2 z2 z2 | E,2 [G,C]2 [G,C]2 | %141
 C,2 [E,G,C]2 [E,_G,C]2 | [F,B,D]2 [A,,A,]2 [_A,,_A,]2 | [G,,G,]2 [F,G,=B,]2 [F,G,B,]2 | %144
 C,2 [=E,B,C]2 [E,B,C]2 | F,,2 [F,A,C]2 [F,A,C]2 | [B,,B,]2 F,2 D,2 | B,,2 z2 z2 |] %148
V:4
 x6 | x6 | x6 | x6 | x6 | x6 | x6 | x6 | x6 | x6 | x6 | x6 | x6 | x6 | x6 | x6 | x6 | x6 | x6 | %19
 x6 | x6 | x6 | E,4 D,2 | C,2 x4 | x6 | x6 | x6 | x6 | x6 | x6 | x6 | x6 |: x6 | x6 | x6 | x6 | %36
 x6 | x6 | x6 | x6 | x6 | x6 | x6 | x6 | x6 | x6 |1 x6 | x6 :|2 x6 | x6 || x6 | x6 | x6 | x6 | x6 | %55
 x6 | x6 | x6 | x6 | x6 | x6 | x6 | x6 | x6 | x6 | x6 | x6 | x6 | x6 | x6 | x6 | x6 | (E,4 D,2 | %73
 C,2) x4 | x6 | x6 | x6 | x6 | x6 | x6 | x6 | x6 |:[K:Eb] x6 | x6 | x6 | x6 | x6 | x6 | x6 | x6 | %90
 x6 | x6 | x6 | x6 | x6 | x6 | x6 | x6 | x6 | x6 | x6 | x6 | x6 | x6 | x6 | x6 | x6 | x6 | x6 | %109
 x6 | x6 | x6 |1 x6 | x6 :|2 x6 | x6 ||[K:Bb] x6 | x6 | x6 | x6 | x6 | x6 | x6 | x6 | x6 | x6 | %126
 x6 | x6 | x6 | x6 | x6 | x6 | x6 | x6 | x6 | x6 | x6 | x6 | (E,4 D,2 | C,2) x4 | x6 | x6 | x6 | %143
 x6 | x6 | x6 | x6 | x6 |] %148

